X:54
T:Scottiche de Roquefort
S:Repertori 27
M:2/4
L:1/8
K:C
gg a>g|fg ec|d/e/f/d/ ec|dg ec|\
gg a>g|fg ec|d/e/f/d/ ec|dB c2:|
|:cB/A/ GG|c/B/c/d/ ee|fd/f/ ec/e/|dg ec|\
cB/A/ GG|c/B/c/d/ ee|fd/f/ ec/e/|dB c2:|
